svgs/duotone/plate-wheat.svg

<svg xmlns="http://www.w3.org/2000/svg" viewBox="0 0 512 512"><!--! Font Awesome Pro 6.5.1 by @fontawesome - https://fontawesome.com License - https://fontawesome.com/license (Commercial License) Copyright 2023 Fonticons, Inc. --><defs><style>.fa-secondary{opacity:.4}</style></defs><path class="fa-secondary" d="M160 48c0-8.8 7.2-16 16-16c44.2 0 80 35.8 80 80v16c0 8.8-7.2 16-16 16c-44.2 0-80-35.8-80-80V48zM32 88c0-13.3 10.7-24 24-24h48c13.3 0 24 10.7 24 24s-10.7 24-24 24H56c-13.3 0-24-10.7-24-24zM0 160c0-13.3 10.7-24 24-24H136c13.3 0 24 10.7 24 24s-10.7 24-24 24H24c-13.3 0-24-10.7-24-24zm56 48h48c13.3 0 24 10.7 24 24s-10.7 24-24 24H56c-13.3 0-24-10.7-24-24s10.7-24 24-24zM288 32c44.2 0 80 35.8 80 80v16c0 8.8-7.2 16-16 16c-44.2 0-80-35.8-80-80V48c0-8.8 7.2-16 16-16zm96 16c0-8.8 7.2-16 16-16c44.2 0 80 35.8 80 80v16c0 8.8-7.2 16-16 16c-44.2 0-80-35.8-80-80V48zm80 128c8.8 0 16 7.2 16 16v16c0 44.2-35.8 80-80 80c-8.8 0-16-7.2-16-16V256c0-44.2 35.8-80 80-80zm-96 16v16c0 44.2-35.8 80-80 80c-8.8 0-16-7.2-16-16V256c0-44.2 35.8-80 80-80c8.8 0 16 7.2 16 16zM240 176c8.8 0 16 7.2 16 16v16c0 44.2-35.8 80-80 80c-8.8 0-16-7.2-16-16V256c0-44.2 35.8-80 80-80z"/><path class="fa-primary" d="M27.8 320C13 320 1.6 332.9 3.5 347.6C9.7 397.8 47.8 437 96 446v2c0 17.7 14.3 32 32 32H384c17.7 0 32-14.3 32-32v-2c48.2-9 86.3-48.2 92.6-98.4c1.8-14.7-9.6-27.6-24.4-27.6H27.8z"/></svg>

<svg xmlns="http://www.w3.org/2000/svg" viewBox="0 0 512 512"><!--! Font Awesome Pro 6.1.1 by @fontawesome - https://fontawesome.com License - https://fontawesome.com/license (Commercial License) Copyright 2022 Fonticons, Inc. --><defs><style>.fa-secondary{opacity:.4}</style></defs><path class="fa-primary" d="M480 320C497.7 320 512 334.3 512 352C512 411.7 471.1 461.9 415.8 476C415.9 477.3 416 478.7 416 480C416 497.7 401.7 512 384 512H128C110.3 512 96 497.7 96 480C96 478.7 96.08 477.3 96.24 476C40.91 461.9 0 411.7 0 352C0 334.3 14.33 320 32 320H480z"/><path class="fa-secondary" d="M160 48C160 39.16 167.2 32 176 32C220.2 32 256 67.82 256 112V128C256 136.8 248.8 144 240 144C195.8 144 160 108.2 160 64V48zM32 88C32 74.75 42.75 64 56 64H104C117.3 64 128 74.75 128 88C128 101.3 117.3 112 104 112H56C42.75 112 32 101.3 32 88zM0 160C0 146.7 10.75 136 24 136H136C149.3 136 160 146.7 160 160C160 173.3 149.3 184 136 184H24C10.75 184 0 173.3 0 160zM104 208C117.3 208 128 218.7 128 232C128 245.3 117.3 256 104 256H56C42.75 256 32 245.3 32 232C32 218.7 42.75 208 56 208H104zM368 112V128C368 136.8 360.8 144 352 144C307.8 144 272 108.2 272 64V48C272 39.16 279.2 32 288 32C332.2 32 368 67.82 368 112zM384 48C384 39.16 391.2 32 400 32C444.2 32 480 67.82 480 112V128C480 136.8 472.8 144 464 144C419.8 144 384 108.2 384 64V48zM464 176C472.8 176 480 183.2 480 192V208C480 252.2 444.2 288 400 288C391.2 288 384 280.8 384 272V256C384 211.8 419.8 176 464 176zM368 208C368 252.2 332.2 288 288 288C279.2 288 272 280.8 272 272V256C272 211.8 307.8 176 352 176C360.8 176 368 183.2 368 192V208zM240 176C248.8 176 256 183.2 256 192V208C256 252.2 220.2 288 176 288C167.2 288 160 280.8 160 272V256C160 211.8 195.8 176 240 176z"/></svg>
